X:1
T:God’s Word Is Our Great Heritage
T:God’s Word Is Our Great Heritage
T:Friedrich Otto (Fritz) Reuter, 1916
T:Nikolai Grundtvig, 1817; tr. Ole Belsheim, 1909
T:Public Domain Courtesy of the Cyber Hymnal™
C:Friedrich Otto (Fritz) Reuter, 1916
Z:Public Domain
Z:Courtesy of the Cyber Hymnal™
%%score ( 1 2 ) ( 3 4 )
L:1/8
Q:1/4=115
M:4/4
K:Eb
V:1 treble 
V:2 treble 
V:3 bass 
V:4 bass 
V:1
 E2 | [EG]4 [DF]4 | E2 [Ec]2 [DB]2 [FA]2 | [EG]4 [EG]4 | [DB]2 [EB]2 [EA]2 [EG]2 | [CE]4 [DF]2 E2 | %6
w: God’s|Word is|our great her- i-|tage And|shall be ours for-|ev- er; To|
 [EG]4 [DF]4 | E2 [Ec]2 [DB]2 [FA]2 | [EG]4 [EG]4 | [DB]2 [EB]2 [EA]2 [EG]2 | [CE]4 [DF]2 [DF]2 | %11
w: spread its|light from age to|age Shall|be our chief en-|dea- vor. Through|
 [EG]4 [B,d]4 | [CB]2 [C=A]2 [DB]4 | [Ec]4 [Ee]2 [Ge]2 | [Fe]2 [Fd]2 [Ge]4 | z2 [Ge]2 [Fd]2 [Ec]2 | %16
w: life it|guides our way,|In death it|is our stay.|Lord, grant while|
 B4 =A4 | [DB]2 [Ec]2 [DB]2 [FA]2 | G4 F4 | [EG]4 [EB]4 | [Ec]4 [FB]4 | [CA]4 [EG]4 | F8 | %23
w: words en-|dure, We keep its|teach- ings|pure Through-|out all|gen- er-|a-|
 [B,E]6 |] %24
w: tions.|
V:2
 E2 | x8 | E2 x6 | x8 | x8 | x6 E2 | x8 | E2 x6 | x8 | x8 | x8 | x8 | x8 | x8 | x8 | x8 | %16
 (D2 E2) (F2 E2) | x8 | (F2 E2) (E2 D2) | x8 | x8 | x8 | (D4 C4) | x6 |] %24
V:3
 [E,G,]2 | [E,B,]4 (B,2 A,2) | [C,G,]2 [A,,A,]2 [B,,F,]2 [D,B,]2 | [E,B,]4 [E,B,]4 | %4
 [G,B,]2 [E,G,]2 [A,,C]2 [E,,B,]2 | [C,G,]4 [B,,B,]2 [E,G,]2 | [E,B,]4 (B,2 A,2) | %7
 [C,G,]2 [A,,A,]2 [B,,F,]2 [D,B,]2 | [E,B,]4 [E,B,]4 | [G,B,]2 [E,G,]2 [A,,C]2 [E,,B,]2 | %10
 [C,G,]4 [B,,B,]2 [B,,G,]2 | [E,B,]4 [D,F,]4 | [E,G,]2 F,2 [B,,F,]4 | A,4 [G,B,]2 [E,B,]2 | %14
 [A,C]2 B,2 [E,B,]4 | z2 [C,C]2 [D,G,]2 [E,G,]2 | [G,B,]4 (C2 F,2) | %17
 [B,,F,]2 [A,,A,]2 [B,,F,]2 [D,B,]2 | [E,B,]4 [B,,B,]4 | [E,B,]4 [E,G,]4 | [C,G,]4 [D,F,]4 | %21
 [F,A,]4 B,4 | [A,,C]4 (B,2 A,2) | [E,G,]6 |] %24
V:4
 x2 | x4 B,,4 | x8 | x8 | x8 | x8 | x4 B,,4 | x8 | x8 | x8 | x8 | x8 | x2 F,2 x4 | (A,,2 A,2) x4 | %14
 x2 B,2 x4 | x8 | x4 F,4 | x8 | x8 | x8 | x8 | x4 (G,2 E,2) | x4 B,,4 | x6 |] %24

